ion/logo-tableau.svg

<svg viewBox="0 0 512 512" xmlns="http://www.w3.org/2000/svg"><g><path d="M242.69 340.3h26.62v-72.6h67v-25.82h-67v-72.6h-26.62v72.6h-66.15v25.82h66.15Z"/><path d="M119.26 445.18h22.59v-64.54h59.7v-20.17h-59.7v-65.34h-22.59v65.34h-59.7v20.17h59.7Z"/><path d="M370.15 212h22.59v-64.5h60.5v-19.37h-60.5V62.79h-22.59v65.34h-59.7v19.37h59.7Z"/><path d="M246.72 496h19.36v-46h41.15v-16.92h-41.15v-46h-19.36v46h-40.33V450h40.33Z"/><path d="M120.07 212h21v-65.31h60.51v-18.56H141V62.79h-21v65.34H59.56v18.56h60.51Z"/><path d="M435.72 308.84h19.36v-45.18H496v-17.74h-40.92v-45.18h-19.36v45.18h-40.33v17.74h40.33Z"/><path fill-rule="evenodd" d="M370.15 445.18h22.59v-64.54h60.5v-20.17h-60.5v-65.34h-22.59v65.34h-59.7v20.17h59.7Z"/><path d="M307 74.08V60.37h-40.34V16h-14.52v44.37h-40.33v13.71h40.33v44.37h14.52V74.08ZM56.11 305.61h14.52v-44.37H111v-13.71H70.63V204H56.11v43.56H16v14.52l40.11-.08Z"/></g></svg>

<svg xmlns="http://www.w3.org/2000/svg" viewBox="0 0 512 512"><path d="M242.69,340.3h26.62V267.7h67V241.88h-67v-72.6H242.69v72.6H176.54V267.7h66.15Z"/><path d="M119.26,445.18h22.59V380.64h59.7V360.47h-59.7V295.13H119.26v65.34H59.56v20.17h59.7Z"/><path d="M370.15,212h22.59V147.5h60.5V128.13h-60.5V62.79H370.15v65.34h-59.7V147.5h59.7Z"/><path d="M246.72,496h19.36V450h41.15V433.08H266.08v-46H246.72v46H206.39V450h40.33Z"/><path d="M120.07,212h21V146.69h60.51V128.13H141V62.79h-21v65.34H59.56v18.56h60.51Z"/><path d="M435.72,308.84h19.36V263.66H496V245.92H455.08V200.74H435.72v45.18H395.39v17.74h40.33Z"/><path fill-rule="evenodd" d="M370.15,445.18h22.59V380.64h60.5V360.47h-60.5V295.13H370.15v65.34h-59.7v20.17h59.7Z"/><path d="M307,74.08V60.37H266.66V16H252.14V60.37H211.81V74.08h40.33v44.37h14.52V74.08ZM56.11,305.61H70.63V261.24H111V247.53H70.63V204H56.11v43.56H16v14.52L56.11,262Z"/></svg>
